X:272
T:Da Sooth End 
C:Joe Buchanan's Scottish Tome - Page 314.2
I:314 2
C:Willie Hunter
R:Jig
Z:Carl Allison
L:1/8
M:6/8
K:A
e | cAA dBB | ecc fdd | ecc acA | GBB (B2 e) |
cAA dBB | ecc fdd | efe dcB | cAA A2 :|
g | acc eAA | EAA cBA | ecc acA | GBB (B2 g) |
acc eAA | EAA cBA | Bcd efg | aec efg |
acc eAA | EAA cBA |ecc acA | GBB (B2 e) |
cAA dBB | ecc fdd | efe dcB |  cAA A2 |]

